!!!COM: Hugo Wolf
!!!CNT: Deutscher
!!!TXO: Deutsche 
!!!OTL: Locken, Haltet Mich Gefangen
!!!ODT: 1889/01/29
!!!ONM: No. 47
!!!LYR: Johann Wolfgang von Goethe
!!!ENC: Brian Bice
!!!YOR: 45 Songs on Poems of Goethe and Eichendorff, Dover Publications, 1995
!!NB: Vocal melody and text only encoded.
**kern	**silbe
*clefG2	*
*k[f#c#g#]	*
*M4/4	*
=1	=1
4r	.
{[2.ff#	{Lok-
=2	=2
8ff#]	|
8f#	-ken,
[4ffn	hal-
8ffn]	|
8ee	-tet
8dd#	mich
8ddn	ge-
=3	=3
4cc#	-fan-
4e	-gen
4r	.
[4f#	in
=4	=4
8f#]	|
8cc#	dem
[4cc#	Krei-
8cc#]	|
8cc#	-se
8dd	des
8ee	Ge-
=5	=5
4f#}	-sichts!}
4r	.
{4.ee	{Euch
8ee	ge-
=6	=6
4dd	-lieb-
8cc#	-ten
8b	|
4.a#	brau-
8ee	-nen
=7	=7
4ee	Schlan-
2dd	-gen
8cc#	zu
8b	er-
=8	=8
4a	-wi-
8ccn	-dern
8b	|
4a	hab
8ee	ich
8dd#	|
=9	=9
2.dd#}	nichts.}
4r	.
=12	=12
2r	.
{4ccn	{Nur
4dd-	dies
=13	=13
[2ccn	Herz,
8ccn]	|
8r	.
4r	.
=14	=14
4r	.
4ccn	es
4ccn	ist
4ee-	von
=15	=15
2ee-	Dau-
4dd}	-er,}
4r	.
=16	=16
4r	.
{2dd	{schwillt
4dd	in
=17	=17
[1dd	ju-
=18	=18
4dd]	|
4dd	-gend-
4dd	-lich-
4ffn	-stem
=19	=19
1ee}	Flor;}
=20	=20
2r	.
{4ee	{un-
4ee	-ter
=21	=21
4.ffn	Schnee
8ffn	und
4ffn	Ne-
4ffn	-bel-
=22	=22
4ee	-schau-
4e	-er
[2ee	rast
=23	=23
4ee]}	|}
{4ee	{ein
[2dd#	A2-
=24	=24
4dd#]	|
4dd#	-tna
4dd#	dir
4cc#	her-
=25	=25
[1b#	-vor.
=26	=26
4b#]}	|}
4r	.
2r	.
=29	=29
{4cc#	{Du
4cc#	be-
4cc#	-scha2mst
4b	wie
=30	=30
4.b	Mor-
8fn	-gen-
4fn	-ro2-
4e	-te
=31	=31
4e	je-
4e#	-ner
4f#	Gip-
4a	-fel
=32	=32
4r	.
2cc#	ern-
4cc#	-ste
=33	=33
4.f#}	Wand,}
8r	.
8r	.
{4ee	{und
8ee	noch
=34	=34
4ee	ein-
4f#	-mal
8r	.
4ee	fu2h-
8ee	-let
=35	=35
4ee	Ha-
4f#}	-tem}
4r	.
{[4ff#	{Fru2h-
=36	=36
1ff#_	|
=37	=37
4ff#]	|
4a	-lings-
4ff#	-hauch
4dd#	und
=38	=38
[1ddn	Som-
=39	=39
4ddn]	|
4ff#	-mer-
[2b	-brand.
=40	=40
2.b]}	|}
4r	.
=42	=42
2r	.
{4.ee	{Schen-
8ee	-ke
=43	=43
4cc#	her!
4r	.
4ee	Noch
8ee	ei-
8dd	-ne
=44	=44
4cc#	Fla-
4g#}	-sche!}
4r	.
{[4cc#	{Die-
=45	=45
4cc#]	|
4cc#	-sen
[2cc#	Be-
=46	=46
4cc#]	|
4d	-cher
4dd	bring
4ff#	ich
=47	=47
1ee#}	Ihr!}
=48	=48
2r	.
{4ffn	{Fin-
4ffn	-det
=49	=49
4ee	sie
4ee	ein
4dd#	Ha2uf-
4dd#	-chen
=50	=50
4dd#	A-
4d#}	-sche,}
4r	.
{[4dd#	{sagt
=51	=51
4dd#]	|
2e	sie:
4r	.
=52	=52
4r	.
2a	Der
4ffn	ver-
=53	=53
[1ffn	-brann-
=54	=54
4ffn]	|
4a	-te
2g#}	mir.}
*-	*-
